packages/bezier-icons/icons/triangle-right-circle.svg

<svg width="24" height="24" viewBox="0 0 24 24" fill="none" xmlns="http://www.w3.org/2000/svg">
<path fill-rule="evenodd" clip-rule="evenodd" d="M4.00018 12.0001C4.00018 16.4111 7.58918 20.0001 12.0002 20.0001C16.4112 20.0001 20.0002 16.4111 20.0002 12.0001C20.0002 7.58912 16.4112 4.00012 12.0002 4.00012C7.58918 4.00012 4.00018 7.58912 4.00018 12.0001ZM2.00018 12.0001C2.00018 6.47712 6.47718 2.00012 12.0002 2.00012C17.5232 2.00012 22.0002 6.47712 22.0002 12.0001C22.0002 17.5231 17.5232 22.0001 12.0002 22.0001C6.47718 22.0001 2.00018 17.5231 2.00018 12.0001ZM9.95148 7.65104C9.95148 7.39704 10.2485 7.25804 10.4435 7.42104L15.6745 11.78C15.8185 11.9 15.8185 12.122 15.6745 12.241L10.4435 16.601C10.2485 16.764 9.95148 16.625 9.95148 16.371V7.65104Z" fill="#313234"/>
</svg>

<svg xmlns="http://www.w3.org/2000/svg" width="24" height="24" fill="none" viewBox="0 0 24 24"><path fill="#313234" fill-rule="evenodd" d="M4 12c0 4.411 3.59 8 8 8s8-3.589 8-8-3.589-8-8-8-8 3.59-8 8m-2 0C2 6.477 6.477 2 12 2s10 4.477 10 10-4.477 10-10 10S2 17.523 2 12m7.951-4.349a.3.3 0 0 1 .492-.23l5.232 4.359a.3.3 0 0 1 0 .461l-5.232 4.36a.3.3 0 0 1-.492-.23z" clip-rule="evenodd"/></svg>
